creative/fonts/silwki.svg

<?xml version="1.0" encoding="UTF-8" standalone="no"?>
<svg width="500" height="850" version="1.1" id="svg5" sodipodi:docname="silwki.svg" inkscape:version="1.4.3 (0d15f750, 2025-12-25)" xmlns:inkscape="http://www.inkscape.org/namespaces/inkscape" xmlns:sodipodi="http://sodipodi.sourceforge.net/DTD/sodipodi-0.dtd" xmlns="http://www.w3.org/2000/svg" xmlns:svg="http://www.w3.org/2000/svg">
    <defs id="defs5" />
    <sodipodi:namedview id="namedview5" pagecolor="#ffffff" bordercolor="#000000" borderopacity="0.25" inkscape:showpageshadow="2" inkscape:pageopacity="0.0" inkscape:pagecheckerboard="0" inkscape:deskcolor="#d1d1d1" inkscape:zoom="0.3484399" inkscape:cx="261.16412" inkscape:cy="424.75044" inkscape:window-width="1095" inkscape:window-height="723" inkscape:window-x="0" inkscape:window-y="25" inkscape:window-maximized="0" inkscape:current-layer="svg5" />
    <path id="path5" d="m 126.25631,265.90097 a 25,25 0 0 0 -35.355336,0 25,25 0 0 0 0,35.35534 L 373.74369,584.09903 a 25,25 0 0 0 35.35534,0 25,25 0 0 0 0,-35.35534 z M 90.900974,548.74369 a 25,25 0 0 0 0,35.35534 25,25 0 0 0 35.355336,0 L 409.09903,301.25631 a 25,25 0 0 0 0,-35.35534 25,25 0 0 0 -35.35534,0 z M 50,400 a 25,25 0 0 0 -25,25 25,25 0 0 0 25,25 h 400 a 25,25 0 0 0 25,-25 25,25 0 0 0 -25,-25 z M 250,200 A 225,225 0 0 0 25,425 225,225 0 0 0 250,650 225,225 0 0 0 475,425 225,225 0 0 0 250,200 Z m 0,50 A 175,175 0 0 1 425,425 175,175 0 0 1 250,600 175,175 0 0 1 75,425 175,175 0 0 1 250,250 Z m 0,50 A 125,125 0 0 0 125,425 125,125 0 0 0 250,550 125,125 0 0 0 375,425 125,125 0 0 0 250,300 Z m 0,50 a 75,75 0 0 1 75,75 75,75 0 0 1 -75,75 75,75 0 0 1 -75,-75 75,75 0 0 1 75,-75 z" style="stroke:#ff0000;fill:none" />
</svg>

<svg width="500" height="850" xmlns="http://www.w3.org/2000/svg">
    <path
        d="M 250 300 A 125 125 0 0 0 125 425 A 125 125 0 0 0 250 550 A 125 125 0 0 0 375 425 A 125 125 0 0 0 250 300 z M 250 350 A 75 75 0 0 1 325 425 A 75 75 0 0 1 250 500 A 75 75 0 0 1 175 425 A 75 75 0 0 1 250 350 z " />
    <path
        d="M 250 200 A 225 225 0 0 0 25 425 A 225 225 0 0 0 250 650 A 225 225 0 0 0 475 425 A 225 225 0 0 0 250 200 z M 250 250 A 175 175 0 0 1 425 425 A 175 175 0 0 1 250 600 A 175 175 0 0 1 75 425 A 175 175 0 0 1 250 250 z " />
    <path
        d="M 50 400 A 25 25 0 0 0 25 425 A 25 25 0 0 0 50 450 L 450 450 A 25 25 0 0 0 475 425 A 25 25 0 0 0 450 400 L 50 400 z " />
    <path
        d="m 90.900974,548.74369 a 25,25 0 0 0 0,35.35534 25,25 0 0 0 35.355336,0 L 409.09903,301.25631 a 25,25 0 0 0 0,-35.35534 25,25 0 0 0 -35.35534,0 z" />
    <path
        d="m 126.25631,265.90097 a 25,25 0 0 0 -35.355336,0 25,25 0 0 0 0,35.35534 L 373.74369,584.09903 a 25,25 0 0 0 35.35534,0 25,25 0 0 0 0,-35.35534 z" />
</svg>
